X: 124
T: the Milliners House
%R: reel
B: Urbani & Liston "A Selection of Scotch, English Irish, and Foreign Airs", Edinburgh 1800, p.49 #2
F: http://www.vwml.org/browse/browse-collections-dance-tune-books/browse-urbani1800
Z: 2014 John Chambers <jc:trillian.mit.edu>
N: The rhythms aren't quite right at the strains' boundaries; not fixed.
M: C
L: 1/8
K: G
d>c |\
cBdB BAdA | AGFA GFED | cAcc BGBB | AdAF D2d>c |\
cBdB BAdA | AGFA GFED | EDED c2B2 | BAGF G2 :|
|:\
B3c AFGA | B3c AFGA | BGdG dGeG | edcB B2A2 |\
B3c AFGA | B3c AFGA | gfed ecBA | BdFA G4 :|
